;FLAVOR:UltiGCode
;TIME:2208      
;MATERIAL:3320      
;MATERIAL2:0         

;Layer count: 92
;LAYER:0
M107
G0 F12000 X107.616 Y69.541 Z0.300
;TYPE:SKIRT
G1 F1200 X122.385 Y69.540 E1.59505
G1 X122.386 Y158.386 E11.19042
G1 X111.807 Y158.385 E12.33295
G1 X107.587 Y158.389 E12.78871
G1 X107.616 Y154.939 E13.16133
G1 X107.616 Y69.541 E22.38431
G10
G1 Z0.375
G0 F12000 X111.336 Y73.261
;TYPE:WALL-INNER
G1 Z0.300
G11
G1 F1200 X118.665 Y73.260 E23.17584
G1 X118.665 Y80.863 E23.99697
G1 X118.553 Y80.374 E24.05114
G1 X118.302 Y79.776 E24.12119
G1 X118.204 Y79.599 E24.14304
G1 X117.871 Y79.120 E24.20604
G1 X117.422 Y78.664 E24.27516
G1 X116.988 Y78.359 E24.33245
G1 X116.854 Y78.266 E24.35006
G1 X116.277 Y77.998 E24.41877
G1 X115.713 Y77.843 E24.48194
G1 X115.530 Y77.813 E24.50197
G1 X115.452 Y77.811 E24.51040
G1 X115.027 Y77.775 E24.55646
G1 X114.893 Y77.776 E24.57093
G1 X114.350 Y77.830 E24.62987
G1 X113.746 Y77.991 E24.69738
G1 X113.192 Y78.246 E24.76324
G1 X113.076 Y78.307 E24.77740
G1 X112.602 Y78.647 E24.84040
G1 X112.201 Y79.047 E24.90157
G1 X112.108 Y79.147 E24.91632
G1 X111.771 Y79.638 E24.98063
G1 X111.497 Y80.224 E25.05050
G1 X111.336 Y80.818 E25.11696
G1 X111.336 Y73.261 E25.93312
G0 F12000 X111.336 Y82.181
G1 F1200 X111.494 Y82.773 E25.99929
G1 X111.753 Y83.336 E26.06622
G1 X112.126 Y83.877 E26.13719
G1 X112.556 Y84.317 E26.20364
G1 X113.091 Y84.705 E26.27501
G1 X113.643 Y84.972 E26.34124
G1 X114.272 Y85.158 E26.41208
G1 X114.920 Y85.228 E26.48247
G1 X115.051 Y85.224 E26.49662
G1 X115.353 Y85.197 E26.52937
G1 X115.526 Y85.193 E26.54806
G1 X116.163 Y85.040 E26.61881
G1 X116.442 Y84.936 E26.65097
G1 X116.967 Y84.668 E26.71463
G1 X117.379 Y84.364 E26.76992
G1 X117.521 Y84.246 E26.78986
G1 X117.924 Y83.815 E26.85359
G1 X118.296 Y83.243 E26.92728
G1 X118.563 Y82.590 E27.00347
G1 X118.665 Y82.166 E27.05057
G1 X118.666 Y154.666 E34.88057
G1 X111.336 Y154.666 E35.67221
G1 X111.336 Y82.181 E43.50059
G0 F12000 X111.634 Y81.486
;TYPE:WALL-OUTER
G1 F1200 X111.631 Y81.516 E43.50385
G1 X111.681 Y82.077 E43.56468
G1 X111.834 Y82.650 E43.62873
G1 X112.067 Y83.157 E43.68899
G1 X112.405 Y83.648 E43.75337
G1 X112.792 Y84.044 E43.81317
G1 X113.276 Y84.395 E43.87774
G1 X113.773 Y84.635 E43.93735
G1 X114.343 Y84.803 E44.00152
G1 X114.935 Y84.867 E44.06583
G1 X115.030 Y84.865 E44.07609
G1 X115.327 Y84.837 E44.10831
G1 X115.480 Y84.834 E44.12484
G1 X116.058 Y84.695 E44.18904
G1 X116.297 Y84.606 E44.21659
G1 X116.777 Y84.361 E44.27479
G1 X117.157 Y84.081 E44.32577
G1 X117.273 Y83.984 E44.34210
G1 X117.639 Y83.592 E44.40002
G1 X117.976 Y83.075 E44.46667
G1 X118.220 Y82.479 E44.53622
G1 X118.315 Y82.085 E44.57999
G1 X118.366 Y81.600 E44.63266
G1 X118.332 Y81.018 E44.69563
G1 X118.209 Y80.485 E44.75470
G1 X117.977 Y79.933 E44.81937
G1 X117.898 Y79.789 E44.83711
G1 X117.593 Y79.351 E44.89475
G1 X117.189 Y78.940 E44.95699
G1 X116.674 Y78.579 E45.02492
G1 X116.152 Y78.337 E45.08706
G1 X115.636 Y78.195 E45.14486
G1 X115.497 Y78.172 E45.16007
G1 X115.428 Y78.171 E45.16753
G1 X115.014 Y78.135 E45.21241
G1 X114.913 Y78.136 E45.22332
G1 X114.415 Y78.185 E45.27736
G1 X113.869 Y78.331 E45.33840
G1 X113.351 Y78.569 E45.39997
G1 X113.266 Y78.614 E45.41035
G1 X112.835 Y78.922 E45.46756
G1 X112.460 Y79.296 E45.52476
G1 X112.390 Y79.372 E45.53592
G1 X112.084 Y79.817 E45.59425
G1 X111.836 Y80.348 E45.65754
G1 X111.683 Y80.914 E45.72087
G1 X111.634 Y81.486 E45.78287
G0 F12000 X111.354 Y81.476
G0 X111.256 Y73.091
G0 X110.976 Y72.901
G1 F1200 X119.025 Y72.900 E46.65216
G1 X119.026 Y155.026 E55.52177
G1 X110.976 Y155.026 E56.39117
G1 X110.976 Y72.901 E65.26067
G0 F12000 X111.461 Y73.532
;TYPE:FILL
G1 F1200 X115.630 Y77.701 E65.89742
G0 F12000 X115.072 Y77.652
G1 F1200 X111.461 Y74.041 E66.44895
G0 F12000 X111.461 Y74.550
G1 F1200 X114.590 Y77.679 E66.92685
G0 F12000 X114.153 Y77.751
G1 F1200 X111.461 Y75.059 E67.33802
G0 F12000 X111.461 Y75.568
G1 F1200 X113.750 Y77.858 E67.68770
G0 F12000 X113.395 Y78.012
G1 F1200 X111.461 Y76.077 E67.98317
G0 F12000 X111.461 Y76.586
G1 F1200 X113.050 Y78.176 E68.22594
G0 F12000 X112.749 Y78.384
G1 F1200 X111.461 Y77.095 E68.42274
G0 F12000 X111.461 Y77.604
G1 F1200 X112.462 Y78.606 E68.57571
G0 F12000 X112.207 Y78.860
G1 F1200 X111.461 Y78.114 E68.68965
G0 F12000 X111.461 Y78.623
G1 F1200 X111.862 Y79.279 E68.76669
G1 X111.461 Y79.386 E68.81213
G1 X111.575 Y79.755 E68.85384
G0 F12000 X113.184 Y78.228
G0 X115.532 Y77.794
G0 X116.316 Y77.877
G1 F1200 X111.824 Y73.386 E69.53985
G0 F12000 X112.333 Y73.386
G1 F1200 X118.537 Y79.590 E70.48742
G0 F12000 X118.537 Y79.081
G1 F1200 X112.842 Y73.386 E71.35725
G0 F12000 X113.352 Y73.386
G1 F1200 X118.537 Y78.572 E72.14925
G0 F12000 X118.537 Y78.063
G1 F1200 X113.861 Y73.386 E72.86352
G0 F12000 X114.370 Y73.386
G1 F1200 X118.537 Y77.554 E73.50004
G0 F12000 X118.537 Y77.044
G1 F1200 X114.879 Y73.386 E74.05875
G0 F12000 X115.388 Y73.386
G1 F1200 X118.537 Y76.535 E74.53971
G0 F12000 X118.537 Y76.026
G1 F1200 X115.897 Y73.386 E74.94293
G0 F12000 X116.406 Y73.386
G1 F1200 X118.537 Y75.517 E75.26841
G0 F12000 X118.537 Y75.008
G1 F1200 X116.915 Y73.386 E75.51615
G0 F12000 X117.424 Y73.386
G1 F1200 X118.537 Y74.499 E75.68614
G0 F12000 X118.537 Y73.990
G1 F1200 X117.934 Y73.386 E75.77832
G0 F12000 X118.443 Y73.386
G1 F1200 X118.537 Y73.481 E75.79275
G0 F12000 X118.582 Y82.596
G0 X118.315 Y83.441
G1 F1200 X118.326 Y83.706 E75.82672
G1 X118.538 Y84.173 E75.88211
G0 F12000 X118.538 Y84.682
G1 F1200 X117.890 Y84.033 E75.98116
G0 F12000 X117.644 Y84.297
G1 F1200 X118.538 Y85.191 E76.11771
G0 F12000 X118.538 Y85.700
G1 F1200 X117.367 Y84.529 E76.29656
G0 F12000 X117.074 Y84.746
G1 F1200 X118.538 Y86.209 E76.52009
G0 F12000 X118.538 Y86.718
G1 F1200 X116.743 Y84.923 E76.79425
G0 F12000 X116.397 Y85.086
G1 F1200 X118.538 Y87.227 E77.12125
G0 F12000 X118.538 Y87.737
G1 F1200 X116.008 Y85.207 E77.50767
G0 F12000 X115.598 Y85.306
G1 F1200 X118.538 Y88.246 E77.95671
G0 F12000 X118.538 Y88.755
G1 F1200 X115.127 Y85.344 E78.47769
G0 F12000 X114.593 Y85.318
G1 F1200 X118.538 Y89.264 E79.08031
G0 F12000 X118.538 Y89.773
G1 F1200 X113.962 Y85.197 E79.77923
G0 F12000 X113.110 Y84.854
G1 F1200 X118.538 Y90.282 E80.60827
G0 F12000 X118.538 Y90.791
G1 F1200 X111.461 Y83.714 E81.68918
G0 F12000 X111.632 Y83.376
G1 F1200 X111.464 Y83.208 E81.71484
G0 F12000 X111.461 Y84.223
G1 F1200 X118.538 Y91.300 E82.79574
G0 F12000 X118.538 Y91.810
G1 F1200 X111.461 Y84.732 E83.87673
G0 F12000 X111.461 Y85.241
G1 F1200 X118.538 Y92.319 E84.95771
G0 F12000 X118.538 Y92.828
G1 F1200 X111.461 Y85.750 E86.03869
G0 F12000 X111.461 Y86.259
G1 F1200 X118.538 Y93.337 E87.11967
G0 F12000 X118.538 Y93.846
G1 F1200 X111.461 Y86.769 E88.20058
G0 F12000 X111.461 Y87.278
G1 F1200 X118.538 Y94.355 E89.28149
G0 F12000 X118.538 Y94.864
G1 F1200 X111.461 Y87.787 E90.36239
G0 F12000 X111.461 Y88.296
G1 F1200 X118.538 Y95.373 E91.44330
G0 F12000 X118.538 Y95.882
G1 F1200 X111.461 Y88.805 E92.52420
G0 F12000 X111.461 Y89.314
G1 F1200 X118.538 Y96.392 E93.60519
G0 F12000 X118.538 Y96.901
G1 F1200 X111.461 Y89.823 E94.68617
G0 F12000 X111.461 Y90.332
G1 F1200 X118.538 Y97.410 E95.76715
G0 F12000 X118.538 Y97.919
G1 F1200 X111.461 Y90.842 E96.84806
G0 F12000 X111.461 Y91.351
G1 F1200 X118.538 Y98.428 E97.92896
G0 F12000 X118.538 Y98.937
G1 F1200 X111.461 Y91.860 E99.00987
G0 F12000 X111.461 Y92.369
G1 F1200 X118.538 Y99.446 E100.09077
G0 F12000 X118.538 Y99.955
G1 F1200 X111.461 Y92.878 E101.17168
G0 F12000 X111.461 Y93.387
G1 F1200 X118.538 Y100.465 E102.25266
G0 F12000 X118.538 Y100.974
G1 F1200 X111.461 Y93.896 E103.33365
G0 F12000 X111.461 Y94.405
G1 F1200 X118.538 Y101.483 E104.41463
G0 F12000 X118.538 Y101.992
G1 F1200 X111.461 Y94.914 E105.49561
G0 F12000 X111.461 Y95.424
G1 F1200 X118.538 Y102.501 E106.57652
G0 F12000 X118.538 Y103.010
G1 F1200 X111.461 Y95.933 E107.65742
G0 F12000 X111.461 Y96.442
G1 F1200 X118.538 Y103.519 E108.73833
G0 F12000 X118.538 Y104.028
G1 F1200 X111.461 Y96.951 E109.81923
G0 F12000 X111.461 Y97.460
G1 F1200 X118.538 Y104.537 E110.90014
G0 F12000 X118.538 Y105.047
G1 F1200 X111.461 Y97.969 E111.98112
G0 F12000 X111.461 Y98.478
G1 F1200 X118.538 Y105.556 E113.06211
G0 F12000 X118.538 Y106.065
G1 F1200 X111.461 Y98.987 E114.14309
G0 F12000 X111.461 Y99.496
G1 F1200 X118.538 Y106.574 E115.22407
G0 F12000 X118.539 Y107.084
G1 F1200 X111.461 Y100.006 E116.30513
G0 F12000 X111.461 Y100.515
G1 F1200 X118.539 Y107.593 E117.38619
G0 F12000 X118.539 Y108.102
G1 F1200 X111.461 Y101.024 E118.46725
G0 F12000 X111.461 Y101.533
G1 F1200 X118.539 Y108.611 E119.54831
G0 F12000 X118.539 Y109.120
G1 F1200 X111.461 Y102.042 E120.62936
G0 F12000 X111.461 Y102.551
G1 F1200 X118.539 Y109.629 E121.71042
G0 F12000 X118.539 Y110.138
G1 F1200 X111.461 Y103.060 E122.79148
G0 F12000 X111.461 Y103.569
G1 F1200 X118.539 Y110.648 E123.87262
G0 F12000 X118.539 Y111.157
G1 F1200 X111.461 Y104.079 E124.95368
G0 F12000 X111.461 Y104.588
G1 F1200 X118.539 Y111.666 E126.03473
G0 F12000 X118.539 Y112.175
G1 F1200 X111.461 Y105.097 E127.11579
G0 F12000 X111.461 Y105.606
G1 F1200 X118.539 Y112.684 E128.19685
G0 F12000 X118.539 Y113.193
G1 F1200 X111.461 Y106.115 E129.27791
G0 F12000 X111.461 Y106.624
G1 F1200 X118.539 Y113.702 E130.35897
G0 F12000 X118.539 Y114.211
G1 F1200 X111.461 Y107.133 E131.44003
G0 F12000 X111.461 Y107.642
G1 F1200 X118.539 Y114.721 E132.52116
G0 F12000 X118.539 Y115.230
G1 F1200 X111.461 Y108.151 E133.60230
G0 F12000 X111.461 Y108.661
G1 F1200 X118.539 Y115.739 E134.68336
G0 F12000 X118.539 Y116.248
G1 F1200 X111.461 Y109.170 E135.76442
G0 F12000 X111.461 Y109.679
G1 F1200 X118.539 Y116.757 E136.84548
G0 F12000 X118.539 Y117.266
G1 F1200 X111.461 Y110.188 E137.92653
G0 F12000 X111.461 Y110.697
G1 F1200 X118.539 Y117.775 E139.00759
G0 F12000 X118.539 Y118.284
G1 F1200 X111.461 Y111.206 E140.08865
G0 F12000 X111.461 Y111.715
G1 F1200 X118.539 Y118.793 E141.16971
G0 F12000 X118.539 Y119.303
G1 F1200 X111.461 Y112.224 E142.25085
G0 F12000 X111.461 Y112.734
G1 F1200 X118.539 Y119.812 E143.33190
G0 F12000 X118.539 Y120.321
G1 F1200 X111.461 Y113.243 E144.41296
G0 F12000 X111.461 Y113.752
G1 F1200 X118.539 Y120.830 E145.49402
G0 F12000 X118.539 Y121.339
G1 F1200 X111.461 Y114.261 E146.57508
G0 F12000 X111.461 Y114.770
G1 F1200 X118.539 Y121.848 E147.65614
G0 F12000 X118.539 Y122.357
G1 F1200 X111.461 Y115.279 E148.73720
G0 F12000 X111.461 Y115.788
G1 F1200 X118.539 Y122.866 E149.81826
G0 F12000 X118.539 Y123.375
G1 F1200 X111.461 Y116.297 E150.89932
G0 F12000 X111.461 Y116.806
G1 F1200 X118.539 Y123.885 E151.98045
G0 F12000 X118.539 Y124.394
G1 F1200 X111.461 Y117.316 E153.06151
G0 F12000 X111.461 Y117.825
G1 F1200 X118.539 Y124.903 E154.14257
G0 F12000 X118.539 Y125.412
G1 F1200 X111.461 Y118.334 E155.22363
G0 F12000 X111.461 Y118.843
G1 F1200 X118.539 Y125.921 E156.30469
G0 F12000 X118.539 Y126.430
G1 F1200 X111.461 Y119.352 E157.38575
G0 F12000 X111.461 Y119.861
G1 F1200 X118.539 Y126.939 E158.46680
G0 F12000 X118.539 Y127.448
G1 F1200 X111.461 Y120.370 E159.54786
G0 F12000 X111.461 Y120.879
G1 F1200 X118.539 Y127.958 E160.62900
G0 F12000 X118.539 Y128.467
G1 F1200 X111.461 Y121.389 E161.71006
G0 F12000 X111.461 Y121.898
G1 F1200 X118.539 Y128.976 E162.79112
G0 F12000 X118.539 Y129.485
G1 F1200 X111.461 Y122.407 E163.87217
G0 F12000 X111.461 Y122.916
G1 F1200 X118.539 Y129.994 E164.95323
G0 F12000 X118.539 Y130.503
G1 F1200 X111.461 Y123.425 E166.03429
G0 F12000 X111.461 Y123.934
G1 F1200 X118.540 Y131.013 E167.11550
G0 F12000 X118.540 Y131.522
G1 F1200 X111.461 Y124.443 E168.19671
G0 F12000 X111.461 Y124.952
G1 F1200 X118.540 Y132.031 E169.27793
G0 F12000 X118.540 Y132.540
G1 F1200 X111.461 Y125.461 E170.35914
G0 F12000 X111.461 Y125.971
G1 F1200 X118.540 Y133.049 E171.44027
G0 F12000 X118.540 Y133.559
G1 F1200 X111.461 Y126.480 E172.52148
G0 F12000 X111.461 Y126.989
G1 F1200 X118.540 Y134.068 E173.60270
G0 F12000 X118.540 Y134.577
G1 F1200 X111.461 Y127.498 E174.68391
G0 F12000 X111.461 Y128.007
G1 F1200 X118.540 Y135.086 E175.76512
G0 F12000 X118.540 Y135.595
G1 F1200 X111.461 Y128.516 E176.84633
G0 F12000 X111.461 Y129.025
G1 F1200 X118.540 Y136.104 E177.92754
G0 F12000 X118.540 Y136.613
G1 F1200 X111.461 Y129.534 E179.00875
G0 F12000 X111.461 Y130.044
G1 F1200 X118.540 Y137.122 E180.08989
G0 F12000 X118.540 Y137.631
G1 F1200 X111.461 Y130.553 E181.17102
G0 F12000 X111.461 Y131.062
G1 F1200 X118.540 Y138.141 E182.25224
G0 F12000 X118.540 Y138.650
G1 F1200 X111.461 Y131.571 E183.33345
G0 F12000 X111.461 Y132.080
G1 F1200 X118.540 Y139.159 E184.41466
G0 F12000 X118.540 Y139.668
G1 F1200 X111.461 Y132.589 E185.49587
G0 F12000 X111.461 Y133.098
G1 F1200 X118.540 Y140.177 E186.57708
G0 F12000 X118.540 Y140.686
G1 F1200 X111.461 Y133.607 E187.65829
G0 F12000 X111.461 Y134.116
G1 F1200 X118.540 Y141.195 E188.73950
G0 F12000 X118.540 Y141.704
G1 F1200 X111.461 Y134.626 E189.82064
G0 F12000 X111.461 Y135.135
G1 F1200 X118.540 Y142.214 E190.90185
G0 F12000 X118.540 Y142.723
G1 F1200 X111.461 Y135.644 E191.98306
G0 F12000 X111.461 Y136.153
G1 F1200 X118.540 Y143.232 E193.06427
G0 F12000 X118.540 Y143.741
G1 F1200 X111.461 Y136.662 E194.14549
G0 F12000 X111.461 Y137.171
G1 F1200 X118.540 Y144.250 E195.22670
G0 F12000 X118.540 Y144.759
G1 F1200 X111.461 Y137.680 E196.30791
G0 F12000 X111.461 Y138.189
G1 F1200 X118.540 Y145.268 E197.38912
G0 F12000 X118.540 Y145.777
G1 F1200 X111.461 Y138.698 E198.47033
G0 F12000 X111.461 Y139.208
G1 F1200 X118.540 Y146.286 E199.55147
G0 F12000 X118.540 Y146.796
G1 F1200 X111.461 Y139.717 E200.63268
G0 F12000 X111.461 Y140.226
G1 F1200 X118.540 Y147.305 E201.71389
G0 F12000 X118.540 Y147.814
G1 F1200 X111.461 Y140.735 E202.79510
G0 F12000 X111.461 Y141.244
G1 F1200 X118.540 Y148.323 E203.87631
G0 F12000 X118.540 Y148.832
G1 F1200 X111.461 Y141.753 E204.95752
G0 F12000 X111.461 Y142.262
G1 F1200 X118.540 Y149.341 E206.03874
G0 F12000 X118.540 Y149.850
G1 F1200 X111.461 Y142.771 E207.11995
G0 F12000 X111.461 Y143.281
G1 F1200 X118.540 Y150.359 E208.20108
G0 F12000 X118.540 Y150.869
G1 F1200 X111.461 Y143.790 E209.28229
G0 F12000 X111.461 Y144.299
G1 F1200 X118.540 Y151.378 E210.36351
G0 F12000 X118.540 Y151.887
G1 F1200 X111.461 Y144.808 E211.44472
G0 F12000 X111.461 Y145.317
G1 F1200 X118.540 Y152.396 E212.52593
G0 F12000 X118.540 Y152.905
G1 F1200 X111.461 Y145.826 E213.60714
G0 F12000 X111.461 Y146.335
G1 F1200 X118.540 Y153.414 E214.68835
G0 F12000 X118.540 Y153.923
G1 F1200 X111.461 Y146.844 E215.76956
G0 F12000 X111.461 Y147.353
G1 F1200 X118.540 Y154.432 E216.85078
G0 F12000 X118.137 Y154.538
G1 F1200 X111.461 Y147.863 E217.87036
G0 F12000 X111.461 Y148.372
G1 F1200 X117.627 Y154.538 E218.81212
G0 F12000 X117.118 Y154.538
G1 F1200 X111.461 Y148.881 E219.67614
G0 F12000 X111.461 Y149.390
G1 F1200 X116.609 Y154.538 E220.46242
G0 F12000 X116.100 Y154.538
G1 F1200 X111.461 Y149.899 E221.17096
G0 F12000 X111.461 Y150.408
G1 F1200 X115.591 Y154.538 E221.80176
G0 F12000 X115.082 Y154.538
G1 F1200 X111.461 Y150.917 E222.35481
G0 F12000 X111.461 Y151.426
G1 F1200 X114.573 Y154.538 E222.83012
G0 F12000 X114.064 Y154.538
G1 F1200 X111.461 Y151.936 E223.22762
G0 F12000 X111.461 Y152.445
G1 F1200 X113.554 Y154.538 E223.54729
G0 F12000 X113.045 Y154.538
G1 F1200 X111.461 Y152.954 E223.78922
G0 F12000 X111.461 Y153.463
G1 F1200 X112.536 Y154.538 E223.95341
G0 F12000 X112.027 Y154.538
G1 F1200 X111.461 Y153.972 E224.03986
G0 F12000 X111.461 Y154.481
G1 F1200 X111.518 Y154.538 E224.04857
;LAYER:1
M106 S5
G0 F12000 X111.326 Y154.675 Z0.420
;TYPE:WALL-INNER
G1 F1500 X111.326 Y81.692 E227.55175
G1 X111.365 Y82.128 E227.57276
G1 X111.532 Y82.758 E227.60405
G1 X111.810 Y83.356 E227.63570
G1 X112.176 Y83.871 E227.66603
G1 X112.610 Y84.311 E227.69569
G1 X113.090 Y84.656 E227.72407
G1 X113.612 Y84.917 E227.75208
G1 X114.225 Y85.106 E227.78287
G1 X114.906 Y85.186 E227.81578
G1 X115.460 Y85.158 E227.84241
G1 X115.870 Y85.083 E227.86242
G1 X116.498 Y84.870 E227.89425
G1 X117.006 Y84.595 E227.92198
G1 X117.546 Y84.169 E227.95499
G1 X117.928 Y83.745 E227.98238
G1 X118.291 Y83.165 E228.01523
